icon-themes/breeze_svg/cmd/lc_movedownsubitems.svg

<svg viewBox="0 0 24 24" xmlns="http://www.w3.org/2000/svg"><path d="m4 4v1h16v-1zm0 2v1h13v-1zm7 4v1h9v-1zm0 2v1h1 1v-1h-1zm5 0v1h1 3v-1h-3zm-5 4v1h9v-1zm0 2v1h6v-1zm7 1v1h2v-1z" fill="#4d4d4d"/><path d="m4 10 3 4 3-4z" fill="#1d99f3"/></svg>

<svg xmlns="http://www.w3.org/2000/svg" viewBox="0 0 24 24">
 <path 
     style="fill:#4d4d4d" 
     d="M 4 4 L 4 5 L 20 5 L 20 4 L 4 4 z M 4 6 L 4 7 L 17 7 L 17 6 L 4 6 z M 11 10 L 11 11 L 20 11 L 20 10 L 11 10 z M 11 12 L 11 13 L 12 13 L 13 13 L 13 12 L 12 12 L 11 12 z M 16 12 L 16 13 L 17 13 L 20 13 L 20 12 L 17 12 L 16 12 z M 11 16 L 11 17 L 20 17 L 20 16 L 11 16 z M 11 18 L 11 19 L 17 19 L 17 18 L 11 18 z M 18 19 L 18 20 L 20 20 L 20 19 L 18 19 z "
     />
 <path 
     style="fill:#1d99f3" 
     d="M 4 10 L 7 14 L 10 10 L 4 10 z "
     />
 </svg>
